images/organisations/net-a-porter.2bbf47fa3b901152.svg

<?xml version="1.0" encoding="UTF-8"?>
<svg width="400px" height="80px" viewBox="0 0 139 10" version="1.1" xmlns="http://www.w3.org/2000/svg" xmlns:xlink="http://www.w3.org/1999/xlink">
    <!-- Generator: Sketch 52.6 (67491) - http://www.bohemiancoding.com/sketch -->
    <title>NAP logo</title>
    <desc>Created with Sketch.</desc>
    <g id="Footer" stroke="none" stroke-width="1" fill="none" fill-rule="evenodd">
        <g id="Footer-1440---v1" transform="translate(-60.000000, -621.000000)" fill="#000000">
            <g id="NAP-logo" transform="translate(60.000000, 621.000000)">
                <g>
                    <path d="M8.83160595,9.83798387 L8.83160595,0.240766129 L7.41067486,0.240766129 L7.41067486,7.57375 L1.4328731,0.322983871 L1.43164936,0.32233871 C1.41671129,0.304556452 1.39459957,0.286169355 1.36679114,0.270725806 C1.33151366,0.251290323 1.29716454,0.242217742 1.27074863,0.242056452 L1.26830115,0.240766129 L0,0.240766129 L0,9.83798387 L1.37928172,9.83798387 L1.37928172,2.53080645 L7.36007954,9.74439516 L7.36180965,9.74528226 C7.37822465,9.76524194 7.40552672,9.78701613 7.4405088,9.80544355 C7.48055464,9.82645161 7.51865938,9.83641129 7.54621463,9.83657258 L7.5489153,9.83798387 L8.83160595,9.83798387" id="Fill-1"></path>
                    <polyline id="Fill-2" points="12.7326785 9.83689516 12.7326785 0.239677419 19.2911661 0.239677419 19.2911661 1.58125 14.1222565 1.58125 14.1222565 4.34721774 18.7690932 4.34721774 18.7690932 5.52931452 14.1222565 5.52931452 14.1222565 8.51346774 19.6797668 8.51346774 19.6797668 9.83689516 12.7326785 9.83689516"></polyline>
                    <polyline id="Fill-3" points="28.7227001 1.58060484 28.7227001 9.83987903 27.3308012 9.83987903 27.3308012 1.58060484 23.3581187 1.58060484 23.3581187 0.239677419 32.6953825 0.239677419 32.6953825 1.58060484 28.7227001 1.58060484"></polyline>
                    <polygon id="Fill-4" points="35.4997729 6.10379032 40.5647489 6.10379032 40.5647489 4.92870968 35.4997729 4.92870968"></polygon>
                    <path d="M53.2664542,9.86092742 L51.8258166,6.73483871 L47.3157013,6.73483871 L45.8210504,9.86092742 L44.3019247,9.86092742 L48.8719611,0.260887097 L49.5770886,0.218629032 L50.2817942,0.260887097 L54.7868458,9.86092742 L53.2664542,9.86092742 Z M49.5775106,1.97479839 L47.8883273,5.53145161 L51.266694,5.53145161 L49.5775106,1.97479839 Z" id="Fill-5"></path>
                    <polygon id="Fill-6" points="58.5154554 6.10379032 63.5804736 6.10379032 63.5804736 4.92870968 58.5154554 4.92870968"></polygon>
                    <path d="M74.5835853,5.75975806 L70.3283455,5.75975806 L70.3283455,9.8378629 L69.0982757,9.8378629 L69.0982757,0.240766129 L74.5835853,0.240766129 C76.3605404,0.240766129 77.3998755,1.25705645 77.3998755,2.98096774 C77.3998755,4.67915323 76.347037,5.75975806 74.5835853,5.75975806 M74.5835853,1.5725 L70.3144202,1.5725 L70.3144202,4.34469248 L74.5835853,4.34467742 C75.4013813,4.34766129 76.1714936,3.90725806 76.1714936,2.98096774 C76.1714936,2.02895161 75.4216363,1.64302419 74.5835853,1.5725" id="Fill-7"></path>
                    <path d="M85.525932,0.0373387097 C88.8768701,0.0373387097 90.9918306,2.31479839 90.9918306,5.01931452 C90.9918306,7.63826613 88.9367911,10 85.4968154,10 C82.1745719,10 80.0739587,7.65278226 80.0739587,5.01931452 C80.0739587,2.32919355 82.234071,0.0373387097 85.525932,0.0373387097 M85.5314177,8.67 C87.8109502,8.67 89.6056284,7.15197581 89.6056284,5.03137097 C89.6056284,2.8958871 87.8109502,1.37447581 85.5314177,1.37447581 C83.2687644,1.37447581 81.457629,2.88383065 81.457629,5.01931452 C81.457629,7.13991935 83.2687644,8.67 85.5314177,8.67" id="Fill-8"></path>
                    <path d="M100.739976,5.74004032 L103.385364,9.84080645 L101.729517,9.84080645 L99.1385641,5.76274194 L95.7230631,5.76274194 L95.7230631,9.84080645 L94.5098725,9.84080645 L94.5098725,0.24375 L99.9382149,0.24375 C101.769183,0.24375 102.811472,1.37967742 102.811472,3.02282258 C102.811472,4.47653226 102.264165,5.28975806 100.739976,5.74004032 M99.9382149,1.57544355 L95.7230631,1.57544355 L95.7230631,4.4346371 L99.9382149,4.4346371 C100.781752,4.35064516 101.529499,3.96181452 101.529499,2.94552419 C101.529499,2.17362903 100.893998,1.63314516 99.9382149,1.57544355" id="Fill-9"></path>
                    <polyline id="Fill-10" points="111.44095 1.65512097 111.44095 9.84995968 110.013816 9.84995968 110.013816 1.65512097 106.083078 1.65512097 106.083078 0.252903226 115.420216 0.252903226 115.420216 1.65512097 111.44095 1.65512097"></polyline>
                    <polyline id="Fill-11" points="119.237863 9.83790323 119.237863 0.240725806 125.796266 0.240725806 125.796266 1.58225806 120.627441 1.58225806 120.627441 4.34822581 125.274277 4.34822581 125.274277 5.5303629 120.627441 5.5303629 120.627441 8.51451613 126.184909 8.51451613 126.184909 9.83790323 119.237863 9.83790323"></polyline>
                    <path d="M136.330981,5.74004032 L138.976369,9.84080645 L137.320522,9.84080645 L134.729147,5.76274194 L131.314068,5.76274194 L131.314068,9.84080645 L130.100877,9.84080645 L130.100877,0.24375 L135.52922,0.24375 C137.360188,0.24375 138.402477,1.37967742 138.402477,3.02282258 C138.402477,4.47653226 137.85517,5.28975806 136.330981,5.74004032 M135.52922,1.57544355 L131.314068,1.57544355 L131.314068,4.4346371 L135.52922,4.4346371 C136.372757,4.35064516 137.120504,3.96181452 137.120504,2.94552419 C137.120504,2.17362903 136.485003,1.63314516 135.52922,1.57544355" id="Fill-12"></path>
                </g>
            </g>
        </g>
    </g>
</svg>

<svg width="400" height="80" viewBox="0 0 139 10" xmlns="http://www.w3.org/2000/svg"><g fill="#000" fill-rule="evenodd"><path d="M8.832 9.838V.241H7.41v7.333L1.433.323h-.001A.233.233 0 001.367.27.21.21 0 001.27.242L1.268.241H0v9.597h1.38V2.531l5.98 7.213.002.001c.016.02.044.042.079.06.04.021.078.031.105.032l.003.001h1.283M12.733 9.837V.24h6.558V1.58h-5.169v2.766h4.647V5.53h-4.647v2.984h5.558v1.324h-6.947M28.723 1.58v8.26H27.33V1.58h-3.973V.24h9.337v1.34h-3.972M35.5 6.104h5.065V4.929H35.5zM53.266 9.86l-1.44-3.125h-4.51L45.82 9.86h-1.52l4.571-9.6.705-.042.705.042 4.505 9.6h-1.52zm-3.688-7.885l-1.69 3.556h3.379l-1.69-3.556zM58.515 6.104h5.065V4.929h-5.065zM74.584 5.76h-4.256v4.078h-1.23V.24h5.486C76.36.24 77.4 1.257 77.4 2.98c0 1.698-1.053 2.779-2.816 2.779m0-4.188h-4.27v2.773h4.27c.817.003 1.587-.438 1.587-1.364 0-.952-.75-1.338-1.587-1.408M85.526.037c3.35 0 5.466 2.278 5.466 4.982 0 2.62-2.055 4.981-5.495 4.981-3.322 0-5.423-2.347-5.423-4.98 0-2.69 2.16-4.983 5.452-4.983m.005 8.633c2.28 0 4.075-1.518 4.075-3.639 0-2.135-1.795-3.657-4.075-3.657-2.262 0-4.073 1.51-4.073 3.645 0 2.12 1.81 3.651 4.073 3.651M100.74 5.74l2.645 4.1h-1.655l-2.591-4.077h-3.416V9.84H94.51V.244h5.428c1.831 0 2.873 1.136 2.873 2.779 0 1.454-.547 2.267-2.071 2.717m-.802-4.165h-4.215v2.86h4.215c.844-.084 1.591-.473 1.591-1.49 0-.771-.635-1.312-1.59-1.37M111.441 1.655V9.85h-1.427V1.655h-3.93V.253h9.336v1.402h-3.98M119.238 9.838V.24h6.558v1.341h-5.169v2.766h4.647V5.53h-4.647v2.985h5.558v1.323h-6.947M136.331 5.74l2.645 4.1h-1.655l-2.592-4.077h-3.415V9.84h-1.213V.244h5.428c1.831 0 2.873 1.136 2.873 2.779 0 1.454-.547 2.267-2.071 2.717m-.802-4.165h-4.215v2.86h4.215c.844-.084 1.592-.473 1.592-1.49 0-.771-.636-1.312-1.592-1.37"/></g></svg>
